X:44
T:She'll Be Coming Round The Mountain (dulcimer)
C:Traditional
M:4/4
L:1/4
Q:1/4=220
F:http://everythingdulcimer.com/tab/shellbe.abc
K:D
A B|"D"d d d d|"A7"B A F A|"D"d4-|d2 d e|
f f f f|a f e d|"A7"e4-|e2 a g|
"D"f f f f|"D7"e d d d|"G"B B B B|"Ddim"e d c B|
"D"A A A A|"A7"f e B c|"D"d4-|d2||
